src/assets/background.svg

<svg width="1534" height="942" viewBox="0 0 1534 942" fill="none" xmlns="http://www.w3.org/2000/svg">
<rect y="4" width="1534" height="938" fill="url(#paint0_linear_903_10966)" fill-opacity="0.3"/>
<g opacity="0.9">
<path opacity="0.4" d="M690.015 -7.21509L690.021 962.768L835.012 962.764L835.006 -7.21917L690.015 -7.21509Z" fill="#FFC3AB"/>
<path opacity="0.2" d="M690.015 363.533L690.017 590.675L835.01 590.67L835.009 363.529L690.015 363.533Z" fill="#FFC3AB"/>
<path opacity="0.35" d="M690.015 590.675L690.018 959.251L834.994 959.247L834.991 590.671L690.015 590.675Z" fill="#FFC3AB"/>
<path opacity="0.4" d="M-269.881 959.688L690.029 959.675L690.016 -3.99997L689.45 -3.99997C159.618 -3.99731 -269.888 427.464 -269.881 959.688Z" fill="#FFC3AB"/>
<path opacity="0.2" d="M97.1438 960.191L690.03 960.183L690.022 363.533L689.67 363.533C532.475 363.584 381.738 426.475 270.618 538.369C159.498 650.264 97.098 801.997 97.1438 960.191Z" fill="#FFC3AB"/>
<path opacity="0.2" d="M323.005 959.586L690.03 959.581L690.025 590.675L689.806 590.675C592.494 590.706 499.18 629.59 430.392 698.774C361.604 767.959 322.975 861.775 323.005 959.586Z" fill="#FFC3AB"/>
<path opacity="0.4" d="M1198.69 -1.8642L834.981 -1.85934L834.985 363.719L835.202 363.719C931.636 363.688 1024.11 325.154 1092.28 256.594C1160.44 188.034 1198.72 95.064 1198.69 -1.8642Z" fill="#FFC3AB"/>
<path opacity="0.4" d="M1198.69 -1.8564L1422.51 -1.86426C1422.56 154.974 1360.72 305.406 1250.6 416.341C1140.49 527.277 991.109 589.628 835.332 589.679H834.983L834.98 363.903H835.197C931.631 363.873 1024.1 325.321 1092.27 256.73C1160.44 188.139 1198.72 95.1266 1198.69 -1.84566V-1.8408V-1.8564Z" fill="#FFC3AB"/>
<path opacity="0.2" d="M1198.69 -1.8564L1422.51 -1.86426C1422.56 154.974 1360.72 305.406 1250.6 416.341C1140.49 527.277 991.109 589.628 835.332 589.679H834.983L834.98 363.903H835.197C931.631 363.873 1024.1 325.321 1092.27 256.73C1160.44 188.139 1198.72 95.1266 1198.69 -1.84566V-1.8408V-1.8564Z" fill="#FFC3AB"/>
<path opacity="0.4" d="M1422.66 -1.85985L1786.46 -1.86426C1786.47 525.833 1360.73 953.626 835.546 953.628H834.985L834.98 589.724H835.329C991.145 589.674 1140.56 527.318 1250.71 416.375C1360.85 305.432 1422.7 154.989 1422.66 -1.85985Z" fill="#FFC3AB"/>
<path opacity="0.2" d="M1422.66 -1.85985L1786.46 -1.86426C1786.47 525.833 1360.73 953.626 835.546 953.628H834.985L834.98 589.724H835.329C991.145 589.674 1140.56 527.318 1250.71 416.375C1360.85 305.432 1422.7 154.989 1422.66 -1.85985Z" fill="#FFC3AB"/>
<path opacity="0.2" d="M1422.66 -1.85985L1786.46 -1.86426C1786.47 525.833 1360.73 953.626 835.546 953.628H834.985L834.98 589.724H835.329C991.145 589.674 1140.56 527.318 1250.71 416.375C1360.85 305.432 1422.7 154.989 1422.66 -1.85985Z" fill="#FFC3AB"/>
</g>
<defs>
<linearGradient id="paint0_linear_903_10966" x1="1603.73" y1="-16.9375" x2="154.8" y2="1683.86" gradientUnits="userSpaceOnUse">
<stop stop-color="#FFFAF1"/>
<stop offset="1" stop-color="#FFEBEB"/>
</linearGradient>
</defs>
</svg>

<svg width="1534" height="942" fill="none" xmlns="http://www.w3.org/2000/svg"><path fill="url(#a)" fill-opacity=".3" d="M0 4h1534v938H0z"/><g opacity=".9" fill="#FFC3AB"><path opacity=".4" d="m690.015-7.215.006 969.983 144.991-.004-.006-969.983-144.991.004z"/><path opacity=".2" d="m690.015 363.533.002 227.142 144.993-.005-.001-227.141-144.994.004z"/><path opacity=".35" d="m690.015 590.675.003 368.576 144.976-.004-.003-368.576-144.976.004z"/><path opacity=".4" d="m-269.881 959.688 959.91-.013L690.016-4h-.566c-529.832.003-959.338 431.464-959.331 963.688z"/><path opacity=".2" d="m97.144 960.191 592.886-.008-.008-596.65h-.352c-157.195.051-307.932 62.942-419.052 174.836-111.12 111.895-173.52 263.628-173.474 421.822z"/><path opacity=".2" d="m323.005 959.586 367.025-.005-.005-368.906h-.219c-97.312.031-190.626 38.915-259.414 108.099-68.788 69.185-107.417 163.001-107.387 260.812z"/><path opacity=".4" d="m1198.69-1.864-363.709.005.004 365.578h.217c96.434-.031 188.908-38.565 257.078-107.125 68.16-68.56 106.44-161.53 106.41-258.458z"/><path opacity=".4" d="m1198.69-1.856 223.82-.008c.05 156.838-61.79 307.27-171.91 418.205-110.11 110.936-259.491 173.287-415.268 173.338h-.349l-.003-225.776h.217c96.434-.03 188.903-38.582 257.073-107.173 68.17-68.591 106.45-161.603 106.42-258.576v.005-.015z"/><path opacity=".2" d="m1198.69-1.856 223.82-.008c.05 156.838-61.79 307.27-171.91 418.205-110.11 110.936-259.491 173.287-415.268 173.338h-.349l-.003-225.776h.217c96.434-.03 188.903-38.582 257.073-107.173 68.17-68.591 106.45-161.603 106.42-258.576v.005-.015z"/><path opacity=".4" d="m1422.66-1.86 363.8-.004c.01 527.697-425.73 955.49-950.914 955.492h-.561l-.005-363.904h.349c155.816-.05 305.231-62.406 415.381-173.349C1360.85 305.432 1422.7 154.989 1422.66-1.86z"/><path opacity=".2" d="m1422.66-1.86 363.8-.004c.01 527.697-425.73 955.49-950.914 955.492h-.561l-.005-363.904h.349c155.816-.05 305.231-62.406 415.381-173.349C1360.85 305.432 1422.7 154.989 1422.66-1.86z"/><path opacity=".2" d="m1422.66-1.86 363.8-.004c.01 527.697-425.73 955.49-950.914 955.492h-.561l-.005-363.904h.349c155.816-.05 305.231-62.406 415.381-173.349C1360.85 305.432 1422.7 154.989 1422.66-1.86z"/></g><defs><linearGradient id="a" x1="1603.73" y1="-16.938" x2="154.8" y2="1683.86" gradientUnits="userSpaceOnUse"><stop stop-color="#FFFAF1"/><stop offset="1" stop-color="#FFEBEB"/></linearGradient></defs></svg>
